X:1
T:Winnsboro Cotton Mill Blues
M:4/4
L:1/8
K:D
 A2 A2 F2 D2| A/2A/2 A2 A F3 =F| ^F2 F2 F2 F2| FE F E- E4| B B2 BG EE E|\
 B2 B2 G3 E| AA AA AA BA| c B2A-A FG ^G| A4 z FG ^G| A4 z FG ^G| A2 B2 AF D =C-|\
 C8| B,2 D2 E2 D2| _B, D2 E- E4| A A2 AF D2 D| A A2 A F3 =F| ^F2 =F^F FD ED|\
 F F2E-E FG ^G| A4 z FG ^G| A4 z FG ^G| A2 B2 AF E2| D6 z2|

